X:6
T:Toy. WR1776.06, The
B:Wm.Randall CDs 1776
Z:vmp.Steve Mansfield 2015
M:2/4
L:1/8
W:Cast off two Cu. cast up again cross over two Cu. lead up
W:to the top cast off all Allemande with your Partner to the right
W:then to the left lead out sides and turn
Q:3/8=90
K:C
c2 ge | d2 af | edcB | c2 G2 |
c2 ge | d2 c'a | bga^f | g2 G2 :|
|: g2 ec | a2 fd | gefA | {c}B2 AG |
cg2 e | ca2 f | ecdB | c2 C2 :|

